X: 3
T:Barn Dance 2
% Nottingham Music Database
P:AABA
S:McCusker Brothers
M:4/4
L:1/8
R:Hornpipe
K:G
P:A
d2|"G"D2EF G2B_B|(3"G"ABAGA Bd3|"C"g2fe "G"dBGB|"Am"AEFG "D7"A2d2|
"G"D2EF G2B_B|(3"G"ABAGA Bd3|"C"g2fe "G"dBGB|"D7"AGAB "G"G2:|
P:B
(3def|"G"gfga gdBc|"G"dedB "D7"d2(3def|
"G"gfga gdBc|"G"dedB "D7"A2ef|"G"gfga gdBc|
"G"dedB "D7"d2(3def|(3"G"gag(3fgf (3"C"efe(3ded|(3"Am"cdc(3BcB\
P:dc
"D7"A2||<end>
<start>
